report_00007_2020-12-11T15:55:29.892Z/network-rtt/comparison/sorted/5_vs_6.svg

<svg width="640" height="500" xmlns="http://www.w3.org/2000/svg" xmlns:xlink="http://www.w3.org/1999/xlink"><path fill="#fff" d="M0 0h640v500H0z"/><defs><path id="d" stroke-width=".222" stroke="currentColor" d="M-1-1h2v2h-2z"/><path id="b" stroke-width=".222" stroke="currentColor" d="M0-1.33l-1.33 2h2.66z"/><path id="f" stroke-width=".222" stroke="currentColor" d="M0 1.33L1.265.411.782-1.067l-1.564-.009-.483 1.487z"/><use xlink:href="#b" id="c" stroke="currentColor" transform="rotate(180)"/><use xlink:href="#d" id="e" stroke="currentColor" transform="rotate(45)"/><circle id="a" stroke-width=".222" stroke="currentColor" cx="0" cy="0" r="1"/></defs><g fill="none" color="#000" stroke="currentColor"><path stroke="#000" d="M62.2 402.3h9m543.8 0h-9"/><text transform="translate(53.9 406.2)" stroke="none" fill="#000" font-family="Arial" font-size="12" text-anchor="end"><tspan>0.05</tspan></text></g><g fill="none" color="#000" stroke="currentColor"><path stroke="#000" d="M62.2 322.2h9m543.8 0h-9"/><text transform="translate(53.9 326.1)" stroke="none" fill="#000" font-family="Arial" font-size="12" text-anchor="end"><tspan>0.1</tspan></text></g><g fill="none" color="#000" stroke="currentColor"><path stroke="#000" d="M62.2 242h9m543.8 0h-9"/><text transform="translate(53.9 245.9)" stroke="none" fill="#000" font-family="Arial" font-size="12" text-anchor="end"><tspan>0.15</tspan></text></g><g fill="none" color="#000" stroke="currentColor"><path stroke="#000" d="M62.2 161.9h9m543.8 0h-9"/><text transform="translate(53.9 165.8)" stroke="none" fill="#000" font-family="Arial" font-size="12" text-anchor="end"><tspan>0.2</tspan></text></g><g fill="none" color="#000" stroke="currentColor"><path stroke="#000" d="M62.2 81.8h9m543.8 0h-9"/><text transform="translate(53.9 85.7)" stroke="none" fill="#000" font-family="Arial" font-size="12" text-anchor="end"><tspan>0.25</tspan></text></g><g fill="none" color="#000" stroke="currentColor"><path stroke="#000" d="M62.2 428v-9m0-400.9v9"/><text transform="translate(62.2 449.9)" stroke="none" fill="#000" font-family="Arial" font-size="12" text-anchor="middle"><tspan>0</tspan></text></g><g fill="none" color="#000" stroke="currentColor"><path stroke="#000" d="M118 428v-9m0-400.9v9"/><text transform="translate(118 449.9)" stroke="none" fill="#000" font-family="Arial" font-size="12" text-anchor="middle"><tspan>10</tspan></text></g><g fill="none" color="#000" stroke="currentColor"><path stroke="#000" d="M173.9 428v-9m0-400.9v9"/><text transform="translate(173.9 449.9)" stroke="none" fill="#000" font-family="Arial" font-size="12" text-anchor="middle"><tspan>20</tspan></text></g><g fill="none" color="#000" stroke="currentColor"><path stroke="#000" d="M229.7 428v-9m0-400.9v9"/><text transform="translate(229.7 449.9)" stroke="none" fill="#000" font-family="Arial" font-size="12" text-anchor="middle"><tspan>30</tspan></text></g><g fill="none" color="#000" stroke="currentColor"><path stroke="#000" d="M285.6 428v-9m0-400.9v9"/><text transform="translate(285.6 449.9)" stroke="none" fill="#000" font-family="Arial" font-size="12" text-anchor="middle"><tspan>40</tspan></text></g><g fill="none" color="#000" stroke="currentColor"><path stroke="#000" d="M341.4 428v-9m0-400.9v9"/><text transform="translate(341.4 449.9)" stroke="none" fill="#000" font-family="Arial" font-size="12" text-anchor="middle"><tspan>50</tspan></text></g><g fill="none" color="#000" stroke="currentColor"><path stroke="#000" d="M397.2 428v-9m0-400.9v9"/><text transform="translate(397.2 449.9)" stroke="none" fill="#000" font-family="Arial" font-size="12" text-anchor="middle"><tspan>60</tspan></text></g><g fill="none" color="#000" stroke="currentColor"><path stroke="#000" d="M453.1 428v-9m0-400.9v9"/><text transform="translate(453.1 449.9)" stroke="none" fill="#000" font-family="Arial" font-size="12" text-anchor="middle"><tspan>70</tspan></text></g><g fill="none" color="#000" stroke="currentColor"><path stroke="#000" d="M508.9 428v-9m0-400.9v9"/><text transform="translate(508.9 449.9)" stroke="none" fill="#000" font-family="Arial" font-size="12" text-anchor="middle"><tspan>80</tspan></text></g><g fill="none" color="#000" stroke="currentColor"><path stroke="#000" d="M564.7 428v-9m0-400.9v9"/><text transform="translate(564.7 449.9)" stroke="none" fill="#000" font-family="Arial" font-size="12" text-anchor="middle"><tspan>90</tspan></text></g><path stroke="#000" d="M62.2 18.1V428H615V18.1H62.2z" fill="none" color="#000"/><text transform="translate(437.8 467.9)" stroke="none" fill="#000" font-family="Arial" font-size="12" text-anchor="end" color="#000"><tspan>pages+cached+noexternal</tspan></text><path stroke="#9400D3" d="M446.1 464h42.2M62.2 420.1l5.6-1.6 5.6-15.7 5.6-.8 5.5-.5 5.6-.1 5.6-1.3 5.6-.5 5.6-.2 5.6-.1 5.5-1.3 5.6-1.1 5.6-1.3 5.6-1.4 5.6-3.6 5.6-.3 5.5-2.2 5.6-1h5.6l5.6-.2 5.6-.6 5.6-.8 5.5-.6 5.6-.7 5.6-1.1 5.6-.5 5.6-1 5.6-.8 5.5-.1 5.6-.3h5.6l5.6-.7 5.6-.9 5.6-.2 5.6-.5h5.5l5.6-.5h5.6l5.6-.1 5.6-.2 5.6-.3 5.5-.2 5.6-.3 5.6-.3 5.6-1.3 5.6-.5h5.6l5.5-.1 5.6-.2 5.6-.1 5.6-.4 5.6-1.9 5.6-.1h11.1l5.6-.8 5.6-1.3 5.6-.5h5.6l5.5-.2 5.6-.8 5.6-.6 5.6-.5 5.6-.3 5.6-.2 5.5-.1 5.6-1.2h5.6l5.6-.4 5.6-.4 5.6-.3 5.6-.3 5.5-.3 5.6-1.1 5.6-.2 5.6-.3 5.6-.3 5.6-.7 5.5-1.4 5.6-3.6 5.6-.3 5.6-1.7 5.6-6.1 5.6-2.4 5.5-2.9 5.6-1.5 5.6-2.8 5.6-3.6 5.6-2.5 5.6-40.6 5.5-10.2 5.6-16.2 5.6-6.1 5.6-11.7 5.6-10 5.6-2.5 5.5-24.6 5.6-26.9 5.6-7.8L615 26" fill="none" color="#000"/><text transform="translate(437.8 485.9)" stroke="none" fill="#000" font-family="Arial" font-size="12" text-anchor="end" color="#000"><tspan>pages+cached+noexternal+nofonts</tspan></text><path stroke="#009E73" d="M446.1 482h42.2M62.2 407.9l5.6-.8 5.6-1.9 5.6-.8 5.5-1.6 5.6-.5 5.6-1.3 5.6-.1 5.6-.2 5.6-.1 5.5-.8 5.6-.4 5.6-.8 5.6-.1 5.6-.3 5.6-.2 5.5-1.9 5.6-.5 5.6-1 5.6-.1h5.6l5.6-.2 5.5-.1 5.6-.2 5.6-1.8 5.6-.8h5.6l5.6-.8 5.5-1.4h5.6l5.6-2.9 5.6-1.4 5.6-.8h5.6l5.6-.2 5.5-.2h5.6l5.6-1.2 5.6-.5 5.6-.5 5.6-.7 5.5-.4 5.6-.2 5.6-.2 5.6-.3 5.6-.3 5.6-.6 5.5-1h5.6l5.6-.5 5.6-.5 5.6-.3 5.6-.1h5.5l5.6-.4 5.6-.1 5.6-.3 5.6-.2 5.6-.2 5.5-.1 5.6-.2h5.6l5.6-.6h5.6l5.6-.2 5.5-.6 5.6-.8h5.6l5.6-.2 5.6-1.1 5.6-.3 5.6-.2h5.5l5.6-.1 5.6-1.3h5.6l5.6-.4 5.6-.1 5.5-.2 5.6-.6 5.6-2.4 5.6-.2 5.6-.6h5.6l5.5-2.1 5.6-.3 5.6-3.2h5.6l5.6-1.8 5.6-1 5.5-1.2 5.6-.7 5.6-2.2 5.6-.2 5.6-1.3 5.6-3.5 5.5-1.1 5.6-2.1 5.6-22.6 5.6-22" fill="none" color="#000"/><g fill="none" color="#000" stroke="currentColor"><path stroke="#000" d="M62.2 18.1V428H615V18.1H62.2z"/></g></svg>

<?xml version="1.0" encoding="utf-8"  standalone="no"?>
<svg 
 width="640" height="500"
 viewBox="0 0 640 500"
 xmlns="http://www.w3.org/2000/svg"
 xmlns:xlink="http://www.w3.org/1999/xlink"
>

<title>Gnuplot</title>
<desc>Produced by GNUPLOT 5.4 patchlevel 0 </desc>

<g id="gnuplot_canvas">

<rect x="0" y="0" width="640" height="500" fill="#ffffff"/>
<defs>

	<circle id='gpDot' r='0.5' stroke-width='0.5' stroke='currentColor'/>
	<path id='gpPt0' stroke-width='0.222' stroke='currentColor' d='M-1,0 h2 M0,-1 v2'/>
	<path id='gpPt1' stroke-width='0.222' stroke='currentColor' d='M-1,-1 L1,1 M1,-1 L-1,1'/>
	<path id='gpPt2' stroke-width='0.222' stroke='currentColor' d='M-1,0 L1,0 M0,-1 L0,1 M-1,-1 L1,1 M-1,1 L1,-1'/>
	<rect id='gpPt3' stroke-width='0.222' stroke='currentColor' x='-1' y='-1' width='2' height='2'/>
	<rect id='gpPt4' stroke-width='0.222' stroke='currentColor' fill='currentColor' x='-1' y='-1' width='2' height='2'/>
	<circle id='gpPt5' stroke-width='0.222' stroke='currentColor' cx='0' cy='0' r='1'/>
	<use xlink:href='#gpPt5' id='gpPt6' fill='currentColor' stroke='none'/>
	<path id='gpPt7' stroke-width='0.222' stroke='currentColor' d='M0,-1.33 L-1.33,0.67 L1.33,0.67 z'/>
	<use xlink:href='#gpPt7' id='gpPt8' fill='currentColor' stroke='none'/>
	<use xlink:href='#gpPt7' id='gpPt9' stroke='currentColor' transform='rotate(180)'/>
	<use xlink:href='#gpPt9' id='gpPt10' fill='currentColor' stroke='none'/>
	<use xlink:href='#gpPt3' id='gpPt11' stroke='currentColor' transform='rotate(45)'/>
	<use xlink:href='#gpPt11' id='gpPt12' fill='currentColor' stroke='none'/>
	<path id='gpPt13' stroke-width='0.222' stroke='currentColor' d='M0,1.330 L1.265,0.411 L0.782,-1.067 L-0.782,-1.076 L-1.265,0.411 z'/>
	<use xlink:href='#gpPt13' id='gpPt14' fill='currentColor' stroke='none'/>
	<filter id='textbox' filterUnits='objectBoundingBox' x='0' y='0' height='1' width='1'>
	  <feFlood flood-color='#FFFFFF' flood-opacity='1' result='bgnd'/>
	  <feComposite in='SourceGraphic' in2='bgnd' operator='atop'/>
	</filter>
	<filter id='greybox' filterUnits='objectBoundingBox' x='0' y='0' height='1' width='1'>
	  <feFlood flood-color='lightgrey' flood-opacity='1' result='grey'/>
	  <feComposite in='SourceGraphic' in2='grey' operator='atop'/>
	</filter>
</defs>
<g fill="none" color="#FFFFFF" stroke="black" stroke-width="1.00" stroke-linecap="butt" stroke-linejoin="miter">
</g>
<g fill="none" color="black" stroke="currentColor" stroke-width="1.00" stroke-linecap="butt" stroke-linejoin="miter">
	<path stroke='black'  d='M62.2,402.3 L71.2,402.3 M615.0,402.3 L606.0,402.3  '/>	<g transform="translate(53.9,406.2)" stroke="none" fill="black" font-family="Arial" font-size="12.00"  text-anchor="end">
		<text><tspan font-family="Arial" > 0.05</tspan></text>
	</g>
</g>
<g fill="none" color="black" stroke="currentColor" stroke-width="1.00" stroke-linecap="butt" stroke-linejoin="miter">
	<path stroke='black'  d='M62.2,322.2 L71.2,322.2 M615.0,322.2 L606.0,322.2  '/>	<g transform="translate(53.9,326.1)" stroke="none" fill="black" font-family="Arial" font-size="12.00"  text-anchor="end">
		<text><tspan font-family="Arial" > 0.1</tspan></text>
	</g>
</g>
<g fill="none" color="black" stroke="currentColor" stroke-width="1.00" stroke-linecap="butt" stroke-linejoin="miter">
	<path stroke='black'  d='M62.2,242.0 L71.2,242.0 M615.0,242.0 L606.0,242.0  '/>	<g transform="translate(53.9,245.9)" stroke="none" fill="black" font-family="Arial" font-size="12.00"  text-anchor="end">
		<text><tspan font-family="Arial" > 0.15</tspan></text>
	</g>
</g>
<g fill="none" color="black" stroke="currentColor" stroke-width="1.00" stroke-linecap="butt" stroke-linejoin="miter">
	<path stroke='black'  d='M62.2,161.9 L71.2,161.9 M615.0,161.9 L606.0,161.9  '/>	<g transform="translate(53.9,165.8)" stroke="none" fill="black" font-family="Arial" font-size="12.00"  text-anchor="end">
		<text><tspan font-family="Arial" > 0.2</tspan></text>
	</g>
</g>
<g fill="none" color="black" stroke="currentColor" stroke-width="1.00" stroke-linecap="butt" stroke-linejoin="miter">
	<path stroke='black'  d='M62.2,81.8 L71.2,81.8 M615.0,81.8 L606.0,81.8  '/>	<g transform="translate(53.9,85.7)" stroke="none" fill="black" font-family="Arial" font-size="12.00"  text-anchor="end">
		<text><tspan font-family="Arial" > 0.25</tspan></text>
	</g>
</g>
<g fill="none" color="black" stroke="currentColor" stroke-width="1.00" stroke-linecap="butt" stroke-linejoin="miter">
	<path stroke='black'  d='M62.2,428.0 L62.2,419.0 M62.2,18.1 L62.2,27.1  '/>	<g transform="translate(62.2,449.9)" stroke="none" fill="black" font-family="Arial" font-size="12.00"  text-anchor="middle">
		<text><tspan font-family="Arial" > 0</tspan></text>
	</g>
</g>
<g fill="none" color="black" stroke="currentColor" stroke-width="1.00" stroke-linecap="butt" stroke-linejoin="miter">
	<path stroke='black'  d='M118.0,428.0 L118.0,419.0 M118.0,18.1 L118.0,27.1  '/>	<g transform="translate(118.0,449.9)" stroke="none" fill="black" font-family="Arial" font-size="12.00"  text-anchor="middle">
		<text><tspan font-family="Arial" > 10</tspan></text>
	</g>
</g>
<g fill="none" color="black" stroke="currentColor" stroke-width="1.00" stroke-linecap="butt" stroke-linejoin="miter">
	<path stroke='black'  d='M173.9,428.0 L173.9,419.0 M173.9,18.1 L173.9,27.1  '/>	<g transform="translate(173.9,449.9)" stroke="none" fill="black" font-family="Arial" font-size="12.00"  text-anchor="middle">
		<text><tspan font-family="Arial" > 20</tspan></text>
	</g>
</g>
<g fill="none" color="black" stroke="currentColor" stroke-width="1.00" stroke-linecap="butt" stroke-linejoin="miter">
	<path stroke='black'  d='M229.7,428.0 L229.7,419.0 M229.7,18.1 L229.7,27.1  '/>	<g transform="translate(229.7,449.9)" stroke="none" fill="black" font-family="Arial" font-size="12.00"  text-anchor="middle">
		<text><tspan font-family="Arial" > 30</tspan></text>
	</g>
</g>
<g fill="none" color="black" stroke="currentColor" stroke-width="1.00" stroke-linecap="butt" stroke-linejoin="miter">
	<path stroke='black'  d='M285.6,428.0 L285.6,419.0 M285.6,18.1 L285.6,27.1  '/>	<g transform="translate(285.6,449.9)" stroke="none" fill="black" font-family="Arial" font-size="12.00"  text-anchor="middle">
		<text><tspan font-family="Arial" > 40</tspan></text>
	</g>
</g>
<g fill="none" color="black" stroke="currentColor" stroke-width="1.00" stroke-linecap="butt" stroke-linejoin="miter">
	<path stroke='black'  d='M341.4,428.0 L341.4,419.0 M341.4,18.1 L341.4,27.1  '/>	<g transform="translate(341.4,449.9)" stroke="none" fill="black" font-family="Arial" font-size="12.00"  text-anchor="middle">
		<text><tspan font-family="Arial" > 50</tspan></text>
	</g>
</g>
<g fill="none" color="black" stroke="currentColor" stroke-width="1.00" stroke-linecap="butt" stroke-linejoin="miter">
	<path stroke='black'  d='M397.2,428.0 L397.2,419.0 M397.2,18.1 L397.2,27.1  '/>	<g transform="translate(397.2,449.9)" stroke="none" fill="black" font-family="Arial" font-size="12.00"  text-anchor="middle">
		<text><tspan font-family="Arial" > 60</tspan></text>
	</g>
</g>
<g fill="none" color="black" stroke="currentColor" stroke-width="1.00" stroke-linecap="butt" stroke-linejoin="miter">
	<path stroke='black'  d='M453.1,428.0 L453.1,419.0 M453.1,18.1 L453.1,27.1  '/>	<g transform="translate(453.1,449.9)" stroke="none" fill="black" font-family="Arial" font-size="12.00"  text-anchor="middle">
		<text><tspan font-family="Arial" > 70</tspan></text>
	</g>
</g>
<g fill="none" color="black" stroke="currentColor" stroke-width="1.00" stroke-linecap="butt" stroke-linejoin="miter">
	<path stroke='black'  d='M508.9,428.0 L508.9,419.0 M508.9,18.1 L508.9,27.1  '/>	<g transform="translate(508.9,449.9)" stroke="none" fill="black" font-family="Arial" font-size="12.00"  text-anchor="middle">
		<text><tspan font-family="Arial" > 80</tspan></text>
	</g>
</g>
<g fill="none" color="black" stroke="currentColor" stroke-width="1.00" stroke-linecap="butt" stroke-linejoin="miter">
	<path stroke='black'  d='M564.7,428.0 L564.7,419.0 M564.7,18.1 L564.7,27.1  '/>	<g transform="translate(564.7,449.9)" stroke="none" fill="black" font-family="Arial" font-size="12.00"  text-anchor="middle">
		<text><tspan font-family="Arial" > 90</tspan></text>
	</g>
</g>
<g fill="none" color="black" stroke="currentColor" stroke-width="1.00" stroke-linecap="butt" stroke-linejoin="miter">
</g>
<g fill="none" color="black" stroke="currentColor" stroke-width="1.00" stroke-linecap="butt" stroke-linejoin="miter">
	<path stroke='black'  d='M62.2,18.1 L62.2,428.0 L615.0,428.0 L615.0,18.1 L62.2,18.1 Z  '/></g>
<g fill="none" color="black" stroke="currentColor" stroke-width="1.00" stroke-linecap="butt" stroke-linejoin="miter">
</g>
	<g id="gnuplot_plot_1" ><title>pages+cached+noexternal</title>
<g fill="none" color="black" stroke="currentColor" stroke-width="1.00" stroke-linecap="butt" stroke-linejoin="miter">
	<g transform="translate(437.8,467.9)" stroke="none" fill="black" font-family="Arial" font-size="12.00"  text-anchor="end">
		<text><tspan font-family="Arial" >pages+cached+noexternal</tspan></text>
	</g>
</g>
<g fill="none" color="black" stroke="currentColor" stroke-width="1.00" stroke-linecap="butt" stroke-linejoin="miter">
	<path stroke='rgb(148,   0, 211)'  d='M446.1,464.0 L488.3,464.0 M62.2,420.1 L67.8,418.5 L73.4,402.8 L79.0,402.0 L84.5,401.5 L90.1,401.4
		L95.7,400.1 L101.3,399.6 L106.9,399.4 L112.5,399.3 L118.0,398.0 L123.6,396.9 L129.2,395.6 L134.8,394.2
		L140.4,390.6 L146.0,390.3 L151.5,388.1 L157.1,387.1 L162.7,387.1 L168.3,386.9 L173.9,386.3 L179.5,385.5
		L185.0,384.9 L190.6,384.2 L196.2,383.1 L201.8,382.6 L207.4,381.6 L213.0,380.8 L218.5,380.7 L224.1,380.4
		L229.7,380.4 L235.3,379.7 L240.9,378.8 L246.5,378.6 L252.1,378.1 L257.6,378.1 L263.2,377.6 L268.8,377.6
		L274.4,377.5 L280.0,377.3 L285.6,377.0 L291.1,376.8 L296.7,376.5 L302.3,376.2 L307.9,374.9 L313.5,374.4
		L319.1,374.4 L324.6,374.3 L330.2,374.1 L335.8,374.0 L341.4,373.6 L347.0,371.7 L352.6,371.6 L358.1,371.6
		L363.7,371.6 L369.3,370.8 L374.9,369.5 L380.5,369.0 L386.1,369.0 L391.6,368.8 L397.2,368.0 L402.8,367.4
		L408.4,366.9 L414.0,366.6 L419.6,366.4 L425.1,366.3 L430.7,365.1 L436.3,365.1 L441.9,364.7 L447.5,364.3
		L453.1,364.0 L458.7,363.7 L464.2,363.4 L469.8,362.3 L475.4,362.1 L481.0,361.8 L486.6,361.5 L492.2,360.8
		L497.7,359.4 L503.3,355.8 L508.9,355.5 L514.5,353.8 L520.1,347.7 L525.7,345.3 L531.2,342.4 L536.8,340.9
		L542.4,338.1 L548.0,334.5 L553.6,332.0 L559.2,291.4 L564.7,281.2 L570.3,265.0 L575.9,258.9 L581.5,247.2
		L587.1,237.2 L592.7,234.7 L598.2,210.1 L603.8,183.2 L609.4,175.4 L615.0,26.0  '/></g>
	</g>
	<g id="gnuplot_plot_2" ><title>pages+cached+noexternal+nofonts</title>
<g fill="none" color="black" stroke="currentColor" stroke-width="1.00" stroke-linecap="butt" stroke-linejoin="miter">
	<g transform="translate(437.8,485.9)" stroke="none" fill="black" font-family="Arial" font-size="12.00"  text-anchor="end">
		<text><tspan font-family="Arial" >pages+cached+noexternal+nofonts</tspan></text>
	</g>
</g>
<g fill="none" color="black" stroke="currentColor" stroke-width="1.00" stroke-linecap="butt" stroke-linejoin="miter">
	<path stroke='rgb(  0, 158, 115)'  d='M446.1,482.0 L488.3,482.0 M62.2,407.9 L67.8,407.1 L73.4,405.2 L79.0,404.4 L84.5,402.8 L90.1,402.3
		L95.7,401.0 L101.3,400.9 L106.9,400.7 L112.5,400.6 L118.0,399.8 L123.6,399.4 L129.2,398.6 L134.8,398.5
		L140.4,398.2 L146.0,398.0 L151.5,396.1 L157.1,395.6 L162.7,394.6 L168.3,394.5 L173.9,394.5 L179.5,394.3
		L185.0,394.2 L190.6,394.0 L196.2,392.2 L201.8,391.4 L207.4,391.4 L213.0,390.6 L218.5,389.2 L224.1,389.2
		L229.7,386.3 L235.3,384.9 L240.9,384.1 L246.5,384.1 L252.1,383.9 L257.6,383.7 L263.2,383.7 L268.8,382.5
		L274.4,382.0 L280.0,381.5 L285.6,380.8 L291.1,380.4 L296.7,380.2 L302.3,380.0 L307.9,379.7 L313.5,379.4
		L319.1,378.8 L324.6,377.8 L330.2,377.8 L335.8,377.3 L341.4,376.8 L347.0,376.5 L352.6,376.4 L358.1,376.4
		L363.7,376.0 L369.3,375.9 L374.9,375.6 L380.5,375.4 L386.1,375.2 L391.6,375.1 L397.2,374.9 L402.8,374.9
		L408.4,374.3 L414.0,374.3 L419.6,374.1 L425.1,373.5 L430.7,372.7 L436.3,372.7 L441.9,372.5 L447.5,371.4
		L453.1,371.1 L458.7,370.9 L464.2,370.9 L469.8,370.8 L475.4,369.5 L481.0,369.5 L486.6,369.1 L492.2,369.0
		L497.7,368.8 L503.3,368.2 L508.9,365.8 L514.5,365.6 L520.1,365.0 L525.7,365.0 L531.2,362.9 L536.8,362.6
		L542.4,359.4 L548.0,359.4 L553.6,357.6 L559.2,356.6 L564.7,355.4 L570.3,354.7 L575.9,352.5 L581.5,352.3
		L587.1,351.0 L592.7,347.5 L598.2,346.4 L603.8,344.3 L609.4,321.7 L615.0,299.7  '/></g>
	</g>
<g fill="none" color="#FFFFFF" stroke="rgb(  0, 158, 115)" stroke-width="2.00" stroke-linecap="butt" stroke-linejoin="miter">
</g>
<g fill="none" color="black" stroke="currentColor" stroke-width="2.00" stroke-linecap="butt" stroke-linejoin="miter">
</g>
<g fill="none" color="black" stroke="black" stroke-width="1.00" stroke-linecap="butt" stroke-linejoin="miter">
</g>
<g fill="none" color="black" stroke="currentColor" stroke-width="1.00" stroke-linecap="butt" stroke-linejoin="miter">
	<path stroke='black'  d='M62.2,18.1 L62.2,428.0 L615.0,428.0 L615.0,18.1 L62.2,18.1 Z  '/></g>
<g fill="none" color="black" stroke="currentColor" stroke-width="1.00" stroke-linecap="butt" stroke-linejoin="miter">
</g>
</g>
</svg>
